X:1
T:William Byrd ~1540 - 1623
T:Surge Illuminare
%%score [ 1 2 3 4 ]
L:1/8
Q:1/4=200
M:none
K:C
V:1 treble nm="Cantus primus"
V:2 treble nm="Cantus secundus"
V:3 treble nm="Tenor"
V:4 treble nm="Bassus"
V:1
"^Q""^:" x2 x2 |[K:F][Q:1/4=170][Q:1/4=170][Q:1/4=170][Q:1/4=170] z16 x4 | z16 | %3
w: |||
 D6 E^F G2 A2 B2 c2 |[M:4/2] d4 D6 E^F G2 A2 x4 | B8 A4 D4 x6 | F6 G2 A4 D4 | z16 x4 | %8
w: Sur- * * * * * *|ge, sur- * * * *|* ge, il-|lu- mi- na- re,||
 z8 z4 E4 x4 | F6 G2 A4 ^F4 | G4 B6 A2 F4 | z4 D4 F3 G A4 | z4 A4 B6 c2 x2 | d4 B4 A4 d8 | %14
w: il-|lu- mi- na- re|Je- ru- sa- lem,|Je- ru- sa- lem,|il- lu- mi-|na- re Je- ru-|
 ^c4 d8 x4 | z8 D12 | E4 F6 E2 D2 E2 | F8 E2 D2 C2 DE x2 | F2 G2 A8 x4 | A6 B2 c6 B2 x2 | %20
w: sa- lem,|qui-|a ve- nit lu- men|tu- * * * * *|* * um,|qui- a ve- nit|
 A4 G4 z4 F8 | E2 D2 E2 C2 F4 E8 x6 | E4 F6 F2 D4 x4 | E6 D2 x8 | ^C2 =B,2 C4 D16 | %25
w: lu- men tu-|* * * * * um,|Et glo- ri- a|Do *|* * mi- ni,|
 z4 G,4 C6 C2 x2 | A,4 F6 F2 C4 x4 | z4 A4 B4 B6 | G2 x4- x10 | x2 B2 A2 G2 A4 A6 x2 | %30
w: et glo- ri-|a Do- mi- ni,|et glo- ri-|a Do-|* * mi- ni, Do-|
 F2 F4 z4 c8 x2 | d4 c8 A4 | B4 A8 z4 | c6 d2 c4 x4 | B4 A4 G8 x8 | z4 C2 D2 E4 C4 | %36
w: mi- ni su-|per te, or-|ta est,|su- per te,|or- ta est.|Al- le- lu- ia,|
 z4 F2 G2 A4 F4 | A6 B2 c4 A4 | d6 A2 c2 B2 A4 | B6 F2 A2 G2 F4 x2 | A6 D2 F4 E4 | D4 d6 A2 B4 x2 | %42
w: Al- le- lu- ia,|Al- le- lu- ia,|Al- le- lu- * ia|Al- le- lu- * ia,|Al- le- lu- *|ia, Al- le- lu|
 A4 G8 ^F4 x14 |"G" x16 |] %44
w: ||
V:2
"^Q""^:" x2 x2 |[K:F] D6 E^F G2 A2 B8 | A2 G2 A8 B3 c | d4 d8 x4 |[M:4/2] D6 E^F G2 A2 B2 c2 x4 | %5
w: |Sur- * * * * *|* * ge, sur- *|* ge|sur- * * * * * *|
 d16 x6 | z4 D4 F6 G2 | A4 F4 E4 A8 | ^G4 A16 | z4 A4 B6 c2 | d4 B4 x8 | A4 d8 ^c4 | d4 D8 B6 | %13
w: ge,|il- lu- mi-|na- re Je- ru-|sa- lem|il- lu- mi-|na- re|Je- ru- sa-|lem, Je- ru-|
 A2 F4 z8 z4 x2 | A8 B4 x4 | c6 B2 A4 G4 x4 | F2 G2 A6 B2 A2 G2 | F2 G2 A8 G4 x2 | A4 D8 E4 | %19
w: sa- lem,|qui- a|ve- nit lu- men|tu * * * * *||um, qui- a|
 F6 G2 A4 E4 x2 | F4 E4 A6 B2 x4 | c6 B2 A8 x10 | A16 x4 | z4 F4 G6 G2 | E8 z4 A4 x8 | %25
w: ve- nit lu- men|tu- um, lu- men|tu- * *|um,|Et glo- ri-|a et|
 B6 B2 G4 c6 | B2 A2 G2 A4 C4 F6 | F2 C4 F6 E2 F2 x2 | D2 E4 E4 x6 | F8 z4 c8 | d4 c8 A4 x4 | %31
w: glo- ri- a Do-|* * mi- ni, et glo-|ri- a Do- * *|* * mi-|ni su-|per te, or-|
 B4 A4 A6 F2 | D4 z4 A6 B2 | A8 x4- x4 | x4 F4 E4 E2 F2 x8 | G4 E4 z4 A2 B2 | c4 A4 z8 | %37
w: ta est, or- ta|est, su- per|te, or-|ta est. Al- le-|lu- ia, Al- le-|lu- ia,|
 z4 F2 G2 A4 F4 | D2 E2 F12 | D8 z4 d6 | A2 c2 B2 A4 G6 | ^F2 A2 G2 !courtesy!^F8 F4 | %42
w: Al- le- lu- ia,|Al- le- lu-|ia, Al-|le- lu- * ia, Al-|le- lu- * ia, Al-|
 G4 A8"B" x16 x2 | x16 |] %44
w: le- lu-||
V:3
"^Q""^:" x2 x2 |[K:F][K:treble-8] z8 G6 A2 x4 | B2 c2 d2 e2 ^f2 g2 a4 | g8 G8 | %4
w: |Sur- *||ge, sur-|
[M:4/2][K:treble-8] A4 B6 c2 d8 | g4 ^f6 g2 a8 x2 | z8 x8 | z4 A4 c6 d2 x4 | e4 =B4 ^c8 x4 | %9
w: |* * * ge,||il- lu- mi-|na- re Je-|
 d6 e2 f2 c2 d4 | G8 z4 d4 | f6 g2 a4 e4 | ^f8 g6"^(  )" =f2 x2 | d4 d4 f6 e2 x4 | e8 d8 | %15
w: ru- * * * sa-|lem, il-|lu- mi- na- re|Je- ru- sa-|lem, Je- ru- sa-|lem, qui-|
 e4 f8 e4 x4 | d4 ^c4 d8 | A4 A6 B2 c6 | B2 A2 G2 F2 f4 e2 x2 | d2 e2 f4 e2 A4 B2 x2 | c8 F8 x4 | %21
w: a ve- nit|lu- men tu-|um, qui- a ve-|nit lu- men~ ~tu * *|* * * um, qui- a|ve- nit|
 A6 B2 c2 A2 d8 x6 | ^c2 =B2 !courtesy!^c8 d8 | z8 x8 | z4 e4 f6 f2 x8 | d4 g6 f2 e2 d2 x2 | %26
w: lu- men tu * *|* * * um,||Et glo- ri-|a Do- * * *|
 e4 e4 f4 A6 x2 | B2 A8 F4 G4 | F4 z8 x4 | c6 d2 c8 x4 | A4 B4 A8 x4 | f4 B4 f8 | z8 f6 g2 | %33
w: * mi- ni, su-|per te, or- ta|est|su- per te,|or- ta est,|or- ta est,|su- per|
 f8 x8- | x4 f4 x16- | x6 x2 z4 d2 e2 | f8 F8 | F6 F2 f8 | c8 x8 | z4 d6 G2 B2 A2 x2 | D4 A8 c4 | %41
w: te, or-|ta est|Al- le-|lu- ia,|Al- le- lu-|ia,|Al- le- lu- *|ia, Al- le-|
 B8 A4 d6 | A2 c2 B2 A4 d4"D" x16 | x16 |] %44
w: lu- ia, Al-|le- lu * * *||
V:4
"^Q""^:""^Q" x2 x2 |[K:F][K:bass] z16 x4 | z8 D,6 E,^F, | G,2 A,2 B,6 A,2 G,4 | %4
w: ||Sur- * *||
[M:4/2] ^F,4 G,8 G,6 x2 | A,2 B,2 C2 D16 | z4 D,4 x8 | F,6 G,2 A,4 F,4 x4 | E,8 A,6 A,2 x4 | %9
w: * ge, sur-|* * * ge|il-|lu- mi- na- re|Je- ru- sa-|
 D,8 z8 | z4 G,4 B,6 C2 | D4 B,4 A,8 | D6 D2 G,4 G,,4 x2 | B,,6 C,2 D,2 E,2 F,2 G,2 x4 | %14
w: lem,|il- lu- mi-|na- re Je-|ru- sa- lem, Je-|ru- * * * * *|
 A,6 A,2 D,8 | z16 x4 | z16 | D,12 E,4 x2 | F,6 E,2 D,4 ^C,4 | D,8 A,,4 A,6 | %20
w: * sa- lem,|||qui- a|ve- nit lu- men|tu- um, qui-|
 B,2 C6 B,2 A,2 G,2 F,2 x4 | G,2 A,8 D,4 A,,12 | A,4 B,6 B,2 G,8 | A,6 A,2 D,8 | %24
w: a ve- nit lu- men tu|* * * um,|Et glo- ri- a|Do- mi- ni,|
 G,6 F,2 E,2 D,2 C,8 x4 | C,4 F,6 F,2 D,4 x2 | F,6 E,2 D,2 C,2 B,,4 x4 | B,,4 C,8 x6 | F,12 F,4 | %29
w: Do * * mi- ni,|et glo- ri- a|Do- * * * *|mi- ni,|Do- mi-|
 F,16 x4 | z8 z4 F,8 | G,4 F,8 D,4 | F,4 C,8 x4 | z8 z4 C,2 D,2 | E,4 C,4 z4 F,2 G,2 x8 | %35
w: ni,|su-|per te, or-|ta est|Al- le-|lu- ia, Al- le-|
 A,4 F,4 z4 A,2 B,2 | C4 A,4 z8 | B,6 F,2 A,2 G,2 F,4 | G,6 D,2 F,2 E,2 D,4 | F,12 C,4 x2 | %40
w: lu- ia, Al- le-|lu- ia,|Al- le- lu- * ia,|Al- le- lu- * ia,|Al- le-|
"B" x8- x8 | x8 x8 x2 |"E" x16 x14 | x16 |] %44
w: lu-||||

